ix/empty-wallet-change_broken.svg

<svg viewBox="0 0 24 24" fill="none" xmlns="http://www.w3.org/2000/svg" height="1em" width="1em">
  <path d="M2.5 13.24V11.51C2.5 9.44001 4.18999 7.75 6.25999 7.75H17.74C19.81 7.75 21.5 9.44001 21.5 11.51V12.95H19.48C18.92 12.95 18.41 13.17 18.04 13.55C17.62 13.96 17.38 14.55 17.44 15.18C17.53 16.26 18.52 17.05 19.6 17.05H21.5V18.24C21.5 20.31 19.81 22 17.74 22H12.26" stroke="#292D32" stroke-width="1.5" stroke-linecap="round" stroke-linejoin="round"/>
  <path d="M22.5608 13.9699V16.03C22.5608 16.58 22.1208 17.0299 21.5608 17.0499H19.6008C18.5208 17.0499 17.5308 16.2599 17.4408 15.1799C17.3808 14.5499 17.6208 13.9599 18.0408 13.5499C18.4108 13.1699 18.9208 12.95 19.4808 12.95H21.5608C22.1208 12.97 22.5608 13.4199 22.5608 13.9699Z" stroke="#292D32" stroke-width="1.5" stroke-linecap="round" stroke-linejoin="round"/>
  <path d="M7 12H14" stroke="#292D32" stroke-width="1.5" stroke-linecap="round" stroke-linejoin="round"/>
  <path d="M3 16.5H8.34C8.98 16.5 9.5 17.02 9.5 17.66V18.94" stroke="#292D32" stroke-width="1.5" stroke-miterlimit="10" stroke-linecap="round" stroke-linejoin="round"/>
  <path d="M4.22 15.28L3 16.5L4.22 17.72" stroke="#292D32" stroke-width="1.5" stroke-miterlimit="10" stroke-linecap="round" stroke-linejoin="round"/>
  <path d="M9.5 21.7801H4.16C3.52 21.7801 3 21.2601 3 20.6201V19.3401" stroke="#292D32" stroke-width="1.5" stroke-miterlimit="10" stroke-linecap="round" stroke-linejoin="round"/>
  <path d="M8.2793 23.0001L9.4993 21.7801L8.2793 20.5601" stroke="#292D32" stroke-width="1.5" stroke-miterlimit="10" stroke-linecap="round" stroke-linejoin="round"/>
  <path d="M12.2793 2.17006C13.5193 1.70006 14.8493 2.62009 14.8493 3.95009V7.75008" stroke="#292D32" stroke-width="1.5" stroke-linecap="round" stroke-linejoin="round"/>
  <path d="M2.5 12.4099V7.83997C2.5 6.64997 3.23 5.58992 4.34 5.16992L8.31 3.66992" stroke="#292D32" stroke-width="1.5" stroke-linecap="round" stroke-linejoin="round"/>
</svg>

<svg viewBox="0 0 24 24" fill="none" xmlns="http://www.w3.org/2000/svg" height="1em" width="1em">
  <path d="M2.5 13.24v-1.73c0-2.07 1.69-3.76 3.76-3.76h11.48c2.07 0 3.76 1.69 3.76 3.76v1.44h-2.02c-.56 0-1.07.22-1.44.6-.42.41-.66 1-.6 1.63.09 1.08 1.08 1.87 2.16 1.87h1.9v1.19c0 2.07-1.69 3.76-3.76 3.76h-5.48" stroke="#292D32" stroke-width="1.5" stroke-linecap="round" stroke-linejoin="round"/>
  <path d="M22.56 13.97v2.06c0 .55-.44 1-1 1.02H19.6c-1.08 0-2.07-.79-2.16-1.87-.06-.63.18-1.22.6-1.63.37-.38.88-.6 1.44-.6h2.08c.56.02 1 .47 1 1.02ZM7 12h7" stroke="#292D32" stroke-width="1.5" stroke-linecap="round" stroke-linejoin="round"/>
  <path d="M3 16.5h5.34c.64 0 1.16.52 1.16 1.16v1.28" stroke="#292D32" stroke-width="1.5" stroke-miterlimit="10" stroke-linecap="round" stroke-linejoin="round"/>
  <path d="M4.22 15.28 3 16.5l1.22 1.22m5.28 4.06H4.16c-.64 0-1.16-.52-1.16-1.16v-1.28" stroke="#292D32" stroke-width="1.5" stroke-miterlimit="10" stroke-linecap="round" stroke-linejoin="round"/>
  <path d="m8.28 23 1.22-1.22-1.22-1.22" stroke="#292D32" stroke-width="1.5" stroke-miterlimit="10" stroke-linecap="round" stroke-linejoin="round"/>
  <path d="M12.28 2.17a1.9 1.9 0 0 1 2.57 1.78v3.8M2.5 12.41V7.84c0-1.19.73-2.25 1.84-2.67l3.97-1.5" stroke="#292D32" stroke-width="1.5" stroke-linecap="round" stroke-linejoin="round"/>
</svg>
